X:0989
T:A Do.
M:C
L:1/8
Q:1/4=120
I: :: ::
Z:Jack Campin * www.campin.me.uk * 2009
K:G
G<EG>A B<Bd>e|d<BB>G A2 E2 |G<EG>A AA`B>d|ed```````d>B   A2 G2:|
g>af>g e>dB>g|g>af>g e2 g>a|b>ag>f e>dB>g|d/c/B/c/ BA/G/ A2 GE:|

